X:1
T: Colonel Campbell of Monzie's Favourite
C:
R:Strathspey
Q: 128
K:Cm
M:4/4
L:1/16
|:G2|c2c2 c2G2 A6F2|G2G2 G2E2 FEDC B,2D2|CB,CD EDEF GFG=A B2G2|FD3 B3D C6G2|
c2c2 c2G2 A6F2|G2G2 G2E2 FEDC B,2D2|EDEF GFG=A B3c B3e|d2B2 f2d2 c4 cdef|
gc3 g3f g2c2 c2d2|f3g f2d2 B3c d3f|g2c2 g3f g2c2 c2e2|d2B2 f2d2 c4 cdef|
gc3 g3f g2c2 c2d2|fg=ab fedc B3c d2f2|g3b f3g d2f2 G2c2|B2G2 GFED C4 C2:|
